src/main/resources/icons/SpringDataIcons/icons/SpringData.svg

<svg xmlns="http://www.w3.org/2000/svg" width="16" height="16" viewBox="0 0 16 16">
  <g fill="none" fill-rule="evenodd">
    <path fill="#62B543" fill-opacity=".7" d="M9,14.2857566 C7.40182033,14.3596617 5.7563377,14.1953961 4.44717245,14.2546012 C4.44717245,14.2546012 3.94283089,14.2832335 3.43439732,14.3670851 C3.43439732,14.3670851 3.62672229,14.2852786 3.87224354,14.2004045 C5.87221867,13.5091403 6.81849847,13.3700694 8.03485163,12.7452728 C8.35846416,12.5794758 8.68189175,12.3860112 9,12.1685179 L9,14.2857566 Z M12.5506643,8 C12.7852723,7.47237221 12.958277,6.92918634 13.0537151,6.3817562 C12.8624763,6.94174051 12.5853885,7.48451267 12.2438568,8 L9,8 L9,11.0803713 C8.38458932,11.4641269 7.75074853,11.7779984 7.13256106,12.0059474 C5.4834767,12.61336 2.50243959,13.2064565 2.50243959,13.2074791 L2.38172498,13.1430565 C0.354128707,12.1572892 0.297863422,7.76939754 3.97863607,6.35516911 C5.59293826,5.73446293 7.13665308,6.07600472 8.88087692,5.65981457 C10.7417233,5.21805992 12.8961723,3.81917019 13.7718647,2 C14.336193,3.67173721 14.9652417,5.8849446 14.9986121,8 L12.5506643,8 Z"/>
    <rect width="6" height="1" x="10" y="9" fill="#9AA7B0"/>
    <rect width="6" height="1" x="10" y="11" fill="#9AA7B0"/>
    <rect width="6" height="1" x="10" y="13" fill="#9AA7B0"/>
    <rect width="6" height="1" x="10" y="15" fill="#9AA7B0"/>
  </g>
</svg>

<svg xmlns="http://www.w3.org/2000/svg" width="16" height="16" viewBox="0 0 16 16"><rect id="frame" width="16" height="16" fill="none"/><g fill="none" fill-rule="evenodd"><path fill="#62B543" fill-opacity=".7" d="M9 14.286c-1.598.074-3.244-.09-4.553-.031 0 0-.504.028-1.013.112 0 0 .193-.082.438-.167 2-.69 2.946-.83 4.163-1.455.323-.166.647-.359.965-.576v2.117zM12.55 8c.235-.528.408-1.07.504-1.618A7.101 7.101 0 0 1 12.244 8H9v3.08c-.615.384-1.25.698-1.867.926-1.65.607-4.63 1.2-4.63 1.201l-.121-.064C.354 12.157.298 7.77 3.979 6.355c1.614-.62 3.158-.279 4.902-.695 1.86-.442 4.015-1.84 4.89-3.66.565 1.672 1.194 3.885 1.228 6H12.55z"/><path fill="#9AA7B0" d="M10 9h6v1h-6z"/><path fill="#9AA7B0" d="M10 11h6v1h-6z"/><path fill="#9AA7B0" d="M10 13h6v1h-6z"/><path fill="#9AA7B0" d="M10 15h6v1h-6z"/></g></svg>
